!!!!SEGMENT: pl-wtm--r-1371_stefani-jozef--mazur.krn
!!!cenid: 18xx:2412
!!!COM: Stefani, Józef
!!!COM-rismid: pe30024097
!!!CDT: 1800/04/16-1876/03/19
!!!CNT: Polish
!!!OTL: Mazur
!!!PDT:
!!!AGN: Secular; Mazurka
!!!SMS-siglum: PL-Wtm
!!!SMS-shelfmark: R 1371
!!!SMS-shelfwork: W
!!!SMS-variant:
!!!SMS-altvar:
!!!NIFC-rismid: 1001117217
!!!URL-scan: http://repozytorium.nifc.pl/skany/pl-wtm-nut--r1371
!!!ONB-nifc:
!!!AIN: 2 forte
!!!key:
**kern	**kern	**dynam
*part2	*part1	*part1
*staff2	*staff1	*
*Iforte	*Iforte	*
*I"fortepian	*I"fortepian	*
*clefF4	*clefG2	*
*k[f#c#]	*k[f#c#]	*
*D:	*D:	*
*M3/8	*M3/8	*
=1	=1	=1
*>A	*>A	*
!	!LO:TX:a:t=„Jak wypił pół-kwartek,\nObudził się Bartek„	!LO:DY:rj
!	!LO:TX:a:t=Mazur.	!
8BB-X/L 8BBB-X/	8e/L 8d/ 8G/	sf
8AA/ 8AAA/	8g/ 8c#/ 8A/	.
8AA/J 8AAA/	8e/J 8c#/ 8A/	.
=2	=2	=2
8D/L 8DD/	16.f#/LL 16.d/ 16.A/	.
.	32a/JJk 32f#/ 32d/	.
8F#/ 8FF#/	8d/L 8A/	.
8D/J 8DD/	8f#/J 8d/ 8A/	.
=3	=3	=3
8BB-X/ 8BBB-X/	8e/ 8d/ 8G/	sf
.	(<32qqe/LLL	.
.	32qqf#/JJJ	.
8AA/L 8AAA/	8g/L)	.
8AA/J 8AAA/	8e/J 8c#/	.
=4	=4	=4
*tremolo	*	*
8D\L 8DD\	16.f#/LL	.
.	32c#/JJk 32A</ 32G</	.
8D\ 8DD\	8d/L 8A</ 8F#</	.
8D\J 8DD\	8A</J 8F#</	.
*Xtremolo	*	*
=5	=5	=5
8BB-X/ 8BBB-X/	8e/ 8d/ 8G/	sf
8AA/L 8AAA/	8g/L 8c#/ 8A/	.
8AA/J 8AAA/	8e/J 8c#/ 8A/	.
=6	=6	=6
8D/L 8DD/	16f#/LL 16d/ 16A/	.
.	(8qg#X/	.
.	16a/JJ)	.
8F#/ 8FF#/	8d/L 8A/	.
8D/J 8DD/	8f#/J 8d/ 8A/	.
=7	=7	=7
*tremolo	*	*
8A\L 8AA\	16.e/LL 16.c#/	.
.	32f#/K 32d/	<
8A\ 8AA\	16.g/ 16.e/	.
.	32a/K 32f#/	.
8A\J 8AA\	16.b/ 16.g/	.
.	32cc#/JJk 32g/ 32e/	[
*Xtremolo	*	*
=8	=8	=8
!	!	!LO:DY:rj
16.B\LL 16.BB\	16.dd/LL 16.f#/ 16.d/	f
32A\JJk 32AA\	32ee/JJk 32cc#/ 32a/	.
8D/L 8DD/	8ff#\L 8dd\ 8a\	.
8C#/J 8CC#/	8aa\J 8ee\ 8a\	.
!!LO:LB:g=original
=9	=9	=9
16.D/LL 16.DD/	16.ff#\LL 16.dd\ 16.a\	.
32E/JJk 32EE/	32cc#\JJk 32a\	.
8F#/L 8FF#/	8dd\L 8a\	.
8C#/J 8CC#/	8aa\J 8ee\ 8a\	.
=10	=10	=10
16.D/LL 16.DD/	16.ff#\LL 16.dd\ 16.a\	.
32E/JJk 32EE/	32cc#\JJk 32a\	.
8F#/L 8FF#/	8dd\L 8a\	.
8G/J 8GG/	8b\J 8g\	.
=11	=11	=11
8A/ 8AA/	16.a\LL 16.f#\	.
.	32aa\K 32ff#\	.
8G/L 8E/ 8AA/	16.gg\	.
.	32ee\K	.
8G\J 8E\ 8AA\	16.b\	.
.	32cc#\JJk	.
=12	=12	=12
16.F#\LL 16.D\	16.dd\LL	.
32A\JJk 32AA\	32ee\JJk 32cc#\ 32a\	.
8A\L 8D\	8ff#\L 8dd\ 8a\	.
8B\J 8BB\	8ddd\J 8ff#\ 8dd\	.
=13	=13	=13
8G/ 8GG/	16.ccc#\LL	.
.	32bb\K	.
8G/L 8E/ 8AA/	16.aa\	.
.	32gg\K	.
8G/J 8E/ 8AA/	16.b\	.
.	32cc#\JJk	.
=14	=14	=14
16.F#\LL 16.D\	16.dd\LL	.
32A\JJk 32AA\	32ee\JJk 32cc#\ 32a\	.
8A\L 8D\	8ff#\L 8dd\ 8a\	.
8B\J 8BB\	8ddd\J 8ff#\ 8dd\	.
=15	=15	=15
8G/ 8GG/	16.ccc#\LL	.
.	32bb\K	.
8G\L 8E\ 8AA\	16.aa\	.
.	32gg\K	.
8G\J 8E\ 8AA\	16.b\	.
.	32cc#\JJk	.
=16	=16	=16
8F#\ 8D\	8dd\	.
8D/ 8DD/	8ddd\ 8ff#\ 8dd\	.
8r	8r	.
!!LO:LB:g=original
=17:|!	=17:|!	=17:|!
*>B	*>B	*
!	!	!LO:DY:rj
16.A\LL 16.E\ 16.AA\	16.aa\LL 16.cc#\ 16.a\	ff
32A\JJk 32E\ 32AA\	32aa\JJk 32cc#\ 32a\	.
8A\L 8E\ 8AA\	8aa\L 8cc#\ 8a\	.
8A\J 8E\ 8AA\	8ee\J 8cc#\ 8a\	.
=18	=18	=18
*tremolo	*	*
8A\L 8F#\ 8D\	16ff#\LL 16dd\ 16a'\	.
.	(64aa\LL	.
.	64gg\	.
.	64ff#\	.
.	64ee\JJJJ	.
8A\ 8F#\ 8D\	8dd\L)	.
8A\J 8F#\ 8D\	8ddd\J 8ff#\ 8dd\	.
*Xtremolo	*	*
=19	=19	=19
16.A\LL 16.E\ 16.AA\	16.aa\LL 16.cc#\ 16.a\	.
32A\JJk 32E\ 32AA\	32aa\JJk 32cc#\ 32a\	.
8A\L 8E\ 8AA\	8aa\L 8cc#\ 8a\	.
8A\J 8E\ 8AA\	8ee\J 8cc#\ 8a\	.
=20	=20	=20
8A\ 8F#\ 8D\	16ff#\LL 16dd\ 16a'\	.
.	(32cc#\L	.
.	32dd\JJJ)	.
8B\L 8G#X\ 8E#X\ 8D\	(8b^T/L	.
8A\J 8F#\ 8D\	8a/J)	.
=21	=21	=21
16.G\LL 16.GG\	16.bb\LL 16.dd\ 16.b\	.
32d\JK 32B\ 32G\	32bb\JK 32dd\ 32b\	.
8d\J 8B\ 8G\	8bb\J 8dd\ 8b\	.
!	!LO:TX:t=P:problem=klamra łukowa	!
8d\ 8B\ 8G\	24gg\LL	.
.	24aa\	.
.	24bb\JJ	.
=22	=22	=22
16.F#\LL 16.FF#\	16.aa\LL 16.dd\ 16.a\	.
32d\JK 32A\ 32F#\	32aa\JK 32dd\ 32a\	.
8d\J 8A\ 8F#\	8aa\J 8dd\ 8a\	.
!	!LO:TX:t=P:problem=klamra łukowa	!
8d\ 8A\ 8F#\	24ff#\LL	.
.	24gg\	.
.	24aa\JJ	.
=23	=23	=23
16.E/LL 16.EE/	16.gg\LL 16.ee\ 16.b\	.
32E/JJk 32EE/	32gg\JJk 32ee\ 32b\	.
8A/L 8AA/	8ee\L 8cc#\ 8a\	.
8A/J 8E/ 8AA/	8aa\J 8cc#\ 8a\	.
!!LO:LB:g=original
=24	=24	=24
8A\L 8F#\ 8D\	(32ff#\LLL	.
.	32dd\	.
.	32ff#\	.
.	32aa\JJ)	.
8A\J 8F#\ 8D\	8ddd'\J	.
8r	8r	.
=25!|:	=25!|:	=25!|:
*>C	*>C	*
!	!	!LO:DY:rj
8BB/	16.ff#\LL	p
.	32ff#\JJk	.
8B\L 8F#\ 8D\	8gg\L	.
8B\J 8F#\ 8D\	8ff#\J	.
=26	=26	=26
*rep	*	*
8BB/	16.ee#X\LL	.
.	32ff#\JJk	.
8B\L 8F#\ 8D\	8dd\L	.
8B\J 8F#\ 8D\	8b\J	.
*Xrep	*	*
=27	=27	=27
8FF#/	(24cc#/LL	.
.	24a#X/)	.
.	24f#'/JJ	.
8A#X\L 8F#\ 8E\	4ff#/ 4f#^/	.
8A#\J 8F#\ 8E\	.	.
=28	=28	=28
*rep	*Xtuplet	*
8FF#/	(24ccc#\LL	.
.	24aa#X\)	.
.	24ff#'\JJ	.
.	(8qeee#X/	.
8A#X\L 8F#\ 8E\	4fff#^<\)	.
8A#\J 8F#\ 8E\	.	.
*Xrep	*	*
=29	=29	=29
8BB/	16.ff#\LL	.
.	32ff#\JJk	.
.	(8qaa/	.
8B\L 8F#\ 8D\	8gg\L)	.
8B\J 8F#\ 8D\	8ff#'\J	.
=30	=30	=30
*rep	*	*
8BB/	24ee#X'\LL	.
.	(24gg\	.
.	24ff#\JJ)	.
8B\L 8F#\ 8D\	8b\L	.
8B\J 8F#\ 8D\	8dd\J	.
*Xrep	*	*
!!LO:LB:g=original
=31	=31	=31
16AA/	(32a\LLL	.
.	32cc#\	.
16r	32ee\	.
.	32gg\JJJ)	.
8A\L 8G\ 8E\	8aa\L	.
8A\J 8G\ 8E\	8ccc#\J	.
=32	=32	=32
.	(8qeee/	.
8A\ 8F#\ 8D\	(16ddd\LL)	.
.	32ccc#\L	.
.	32ddd\JJJ)	.
8A\ 8F#\ 8D\	8dd\	.
8r	(32dd\LLL	.
.	32ee\	.
.	32ff#\	.
.	32gg\JJJ	.
=33	=33	=33
!	!	!LO:DY:rj
16.A\LL 16.E\ 16.AA\	16.aa\LL 16.cc#\ 16.a\)	ff
32A\JJk 32E\ 32AA\	32aa\JJk 32cc#\ 32a\	.
8A\L 8E\ 8AA\	8aa\L 8cc#\ 8a\	.
8A\J 8E\ 8AA\	8ee\J 8cc#\ 8a\	.
=34	=34	=34
*tremolo	*	*
8A\L 8F#\ 8D\	16ff#\LL 16dd\ 16a\|	.
.	(64aa\LL	.
.	64gg\	.
.	64ff#\	.
.	64ee\JJJJ	.
8A\ 8F#\ 8D\	8dd\L)	.
8A\J 8F#\ 8D\	8ddd\J 8ff#\ 8dd\	.
*Xtremolo	*	*
=35	=35	=35
16.A\LL 16.E\ 16.AA\	16.aa\LL 16.cc#\ 16.a\	.
32A\JJk 32E\ 32AA\	32aa\JJk 32cc#\ 32a\	.
8A\L 8E\ 8AA\	8aa\L 8cc#\ 8a\	.
8A\J 8E\ 8AA\	8ee\J 8cc#\ 8a\	.
=36	=36	=36
8A\ 8F#\ 8D\	16ff#\LL 16dd\ 16a'\	.
.	(32cc#\L	.
.	32dd\JJJ)	.
8B\L 8G#X\ 8E#X\ 8D\	(8b^T/L	.
8A\J 8F#\ 8D\	8a/J)	.
=37	=37	=37
16.G\LL 16.GG\	16.bb\LL 16.dd\ 16.b\	.
32d\JK 32B\ 32G\	32bb\JK 32dd\ 32b\	.
8d\J 8B\ 8G\	8bb\J 8dd\ 8b\	.
*	*tuplet	*
!	!LO:TUP:a	!
8d\ 8B\ 8G\	(24gg\LL	.
.	24aa\	.
.	24bb\JJ	.
!!LO:PB:g=original
=38	=38	=38
!	!LO:TX:t=P:problem=brak zakończenia łuku	!
16.F#\LL 16.FF#\	16.aa\LL 16.dd\ 16.a\)	.
32d\JK 32A\ 32F#\	32aa\JK 32dd\ 32a\	.
8d\J 8A\ 8F#\	8aa\J 8dd\ 8a\	.
!	!LO:TX:t=P:problem=klamra łukowa	!
8d\ 8A\ 8F#\	24ff#\LL	.
.	24gg\	.
.	24aa\JJ	.
=39	=39	=39
16.e\LL 16.E\	16.gg\LL 16.ee\ 16.b\	.
32e\JJk 32E\	32gg\JJk 32ee\ 32b\	.
8A/L 8AA/	8ee\L 8cc#\ 8a\	.
8A/J 8E/ 8AA/	8aa\J 8cc#\ 8a\	.
=40	=40	=40
8A\L 8F#\ 8D\	(32ff#\LLL	.
.	32dd\	.
.	32ff#\	.
.	32aa\JJ)	.
8A\J 8F#\ 8D\	8ddd'\J	.
!LO:TX:b:i:t=fine	!LO:TX:t=P:problem=fermata na kresce	!
8r	8r	.
=41:|!|:	=41:|!|:	=41:|!|:
*>D	*>D	*
*k[f#]	*k[f#]	*
!	!LO:TX:a:i:t=Trio.	!
16.G\LL 16.D\ 16.GG\	16.g/LL 16.d/ 16.B/	.
32G\JJk 32D\ 32GG\	32g/JJk 32d/ 32B/	.
8G\L 8D\ 8GG\	8g/L 8d/ 8B/	.
8G\J 8D\ 8GG\	8d/J 8B/	.
=42	=42	=42
16.G\LL 16.E\ 16.GG\	16.g/LL 16.c#X/ 16.A#X/	.
32G\JJk 32E\ 32GG\	32g/JJk 32c#/ 32A#/	.
8G\L 8E\ 8GG\	8g/L 8c#/ 8A#/	.
8G\J 8E\ 8GG\	8e/J 8c#/ 8A#/	.
=43	=43	=43
16.G\LL 16.D\ 16.GG\	16.g/LL 16.d/ 16.B/	.
32G\JJk 32D\ 32GG\	32g/JJk 32d/ 32B/	.
8G\L 8D\ 8GG\	8g/L 8d/ 8B/	.
8G\J 8D\ 8GG\	8d/J 8B/	.
=44	=44	=44
*^	*	*
8G/L 8D/	4GG\	8g/L 8d/ 8B/	.
8D/ 8DD/	.	8a/ 8f#/ 8d/	.
8G/J 8GG/	8ryy	8b/J 8g/ 8d/	.
!!LO:LB:g=original
=45	=45	=45	=45
4.AA/	8AA\L	16.a/LL 16.f#/	.
.	.	32b/JJk 32g/	.
.	8A\	8a/L 8f#/	.
.	8A\J	8f#/J 8d/	.
=46	=46	=46	=46
4.AA/	8AA\L	16.g/LL 16.e/	.
.	.	32a/JJk 32f#/	.
.	8A\	8g/L 8e/	.
.	8A\J	8e/J 8c#X/	.
*v	*v	*	*
=47	=47	=47
8A\ 8F#\ 8D\	8d/	.
(8qE#X/	(8qe#X/	.
8F#\)	8f#/)	.
(8qG#X/	(8qg#X/	.
8A\)	8a/)	.
=48	=48	=48
8qc#X/	(8qcc#X/	>
8d\L	8dd\L)	.
8qc#/	(8qcc#/	.
8d\	8dd\)	.
8qc#/	(8qcc#/	.
8d\J	8dd\J)	]]
=49	=49	=49
!LO:TX:t=P:problem=mixed beam	!	!
8GG/L	16.dd\LL|	p
.	32b\JJk|	.
8B\ 8G\ 8D\	(8ee\L	.
8B\J 8G\ 8D\	8dd\J)	.
=50	=50	=50
*rep	*	*
!LO:TX:t=P:problem=mixed beam	!	!
8GG/L	16.b/LL|	.
.	32g/JJk|	.
.	(8qdd/	.
8B\ 8G\ 8D\	8cc/L)	.
8B\J 8G\ 8D\	8b'/J	.
*Xrep	*	*
=51	=51	=51
*^	*	*
4.D/	8D\L	(8.dd/L	.
.	8c\ 8A\	.	.
.	.	16cc/L	.
.	8c\J 8A\	16a/	.
.	.	16f#/JJ)	.
*v	*v	*	*
=52	=52	=52
8GG/	16.g/LL|	.
.	32b/JJk|	.
8A#X\L 8G\ 8C#X\	(16e^/LL	.
.	32f#/L	.
.	32e/JJ)	.
8B\J 8G\ 8D\	8d'/J	.
!!LO:LB:g=original
=53	=53	=53
8GG/	16.dd'\LL	.
.	32b'\JJk	.
8B\L 8G\ 8D\	(8ee\L	.
8B\J 8G\ 8D\	8dd\J)	.
=54	=54	=54
*rep	*	*
8GG/	16.cc#X'\LL	.
.	32dd'\JJk	.
8B\L 8G\ 8D\	8b\L|	.
!	!LO:TUP:a	!
8B\J 8G\ 8D\	(24dd\L	.
.	24ee\	.
.	24ee#X\JJ	.
*Xrep	*	*
=55	=55	=55
!LO:TX:t=P:problem=mixed beam	!	!
8FF#/L	8.ff#\L)	.
8d\ 8B\ 8F#\	.	.
.	(16ee\L	.
8e\J 8A#X\ 8F#\	16cc#X\	.
.	16dd\JJ)	.
=56	=56	=56
*tremolo	*	*
8d\L 8B\	(4b\	.
8d\ 8B\	.	.
8d\J 8B\	8bb\)	.
*Xtremolo	*	*
=57:|!|:	=57:|!|:	=57:|!|:
*>E	*>E	*
!	!	!LO:DY:rj
8D/ 8DD/	16.ddd\LL 16.dd\	f
.	32ccc\JJk 32cc\	.
8c\L 8A\ 8F#\ 8D\	8aa\L 8a\	.
8c\J 8A\ 8F#\ 8D\	8dd\J 8d\	.
=58	=58	=58
8GG/	16.eee\LL 16.ee\	.
.	32ddd\JJk 32dd\	.
8B\L 8G\ 8D\	8bb\L 8b\	.
8B\J 8G\ 8D\	8gg\J 8g\	.
=59	=59	=59
!	!LO:TX:t=P:problem=klamra łukowa	!
!	!LO:TUP:b	!
8C/ 8CC/	24a/LL	.
.	24b/	.
.	24cc/JJ	.
8A\L 8E\ 8C\	8e/L	.
8c\J 8A\ 8D\	8f#/J	.
=60	=60	=60
8GG/	8g/	.
8B\L 8G\ 8D\	(32g/LLL	.
.	32a/	.
.	32b/	.
.	32cc/JJ	.
8B\J 8G\ 8D\	8dd/J)	.
!!LO:LB:g=original
=61	=61	=61
8D/ 8DD/	(32dd\LLL	.
.	32ee\	.
.	32dd\	.
.	32cc\JJJ	.
8c\L 8A\ 8F#\ 8D\	8a/L)	.
8c\J 8A\ 8F#\ 8D\	8d'>/J	.
=62	=62	=62
8GG/	(32ee\LLL	.
.	32ff#\	.
.	32ee\	.
.	32dd\JJJ	.
8B\L 8G\ 8D\	8b/L)	.
8B\J 8G\ 8D\	8g'>/J	.
=63	=63	=63
*^	*	*
4.AA/	8AA\L	(32cc#X\LLL	.
.	.	32dd\	.
.	.	32cc#\	.
.	.	32b\JJJ	.
.	8G\ 8E\	8a/L)	.
.	8G\J 8E\	16.g'>/L	.
.	.	32c#X'>/JJk	.
*v	*v	*	*
=64	=64	=64
8F#\ 8D\	8d/L	.
8D/ 8DD/	8dd/J 8f#/ 8d/	.
8r	8r	.
=65	=65	=65
8GG/	16.dd'\LL	.
.	32b'\JJk	.
8B\L 8G\ 8D\	(8ee\L	.
8B\J 8G\ 8D\	8dd\J)	.
=66	=66	=66
*rep	*	*
8GG/	16.b/LL	.
.	32g/JJk	.
.	(8qdd/	.
8B\L 8G\ 8D\	8cc/L)	.
8B\J 8G\ 8D\	8b'/J	.
*Xrep	*	*
=67	=67	=67
*^	*	*
4.D/	8D\L	8.dd/L	.
.	8c\ 8A\	.	.
.	.	(16cc/L	.
.	8c\J 8A\	16a/	.
.	.	16f#/JJ)	.
*v	*v	*	*
!!LO:LB:g=original
=68	=68	=68
8GG/	16.g'/LL	.
.	32b'/JJk	.
8A#X\L 8G\ 8C#X^\	(16e/LL	.
.	32f#/L	.
.	32e/JJ)	.
8B\J 8G\ 8D\	8d'/J	.
=69	=69	=69
8GG/	16.dd'\LL	.
.	32b'\JJk	.
8B\L 8G\ 8D\	(8ee\L	.
8B\J 8G\ 8D\	8dd\J)	.
=70	=70	=70
*rep	*	*
8GG/	16.b/LL|	.
.	32g/JJk|	.
.	(8qdd/	.
8B\L 8G\ 8D\	8cc/L)	.
8B\J 8G\ 8D\	8b'/J	.
*Xrep	*	*
=71	=71	=71
!	!LO:TUP:b	!
!	!LO:TX:t=P:problem=klamra łukowa	!
8A\L 8E-X\ 8C\	24a/LL	.
.	24b/	.
.	24cc/JJ	.
8A\ 8E-\ 8C\	(8e-X/L	.
8c\J 8A\ 8D\	16d/L)	.
.	16f#'/JJ	.
=72	=72	=72
8B\ 8G\	8g/	.
8G/ 8GG/	8gg\ 8dd\ 8b^<\	.
!LO:TX:b:i:t=Mazur da capo al fine\ne poi la Coda.	!	!
8r	8r	.
!!LO:PB:g=original
=73:|!	=73:|!	=73:|!
*>F	*>F	*
*k[f#c#]	*k[f#c#]	*
!	!LO:TX:a:i:t=Coda.	!
8B\L 8F#\ 8D\ 8BB\	(32ff#\LLL	.
.	32dd\	.
.	32ff#\	.
.	32bb\JJ)	.
8B\J 8F#\ 8D\ 8BB\	8ddd\J 8dd'\	.
8r	8r	.
=74	=74	=74
.	(8qee/	.
*^	*	*
4.GG/	8GG\L	8.eee\L)	.
.	8G\ 8E\ 8BB\	.	.
.	.	(16ddd\L	.
.	8G\J 8E\ 8BB\	16ccc#\	.
.	.	16bb\JJ)	.
=75	=75	=75	=75
4.AA/	8AA\L	16aa'\LL	.
.	.	(32fff#\L	.
.	.	32ddd\JJJ)	.
.	8F#\ 8D\	8aa'\L	.
.	8F#\J 8D\	8ff#'\J	.
=76	=76	=76	=76
4.AA/	8AA\L	8.bb\L	.
.	8G\ 8C#\	.	.
.	.	(16aa\L	.
.	8G\J 8C#\	16gg\	.
.	.	16ee\JJ)	.
*v	*v	*	*
=77	=77	=77
8F#\L 8D\	(32ff#\LLL	.
.	32dd\	.
.	32ff#\	.
.	32aa\JJ)	.
8A\J 8F#\ 8D\	8ddd\J 8dd'\	.
8r	8r	.
=78	=78	=78
8B\L 8F#\ 8D\ 8BB\	(32ff#\LLL	.
.	32dd\	.
.	32ff#\	.
.	32bb\JJ)	.
8B\J 8F#\ 8D\ 8BB\	8ddd\J 8dd'\	.
8r	8r	.
=79	=79	=79
.	(8qee/	.
*^	*	*
4GG/	8GG\L	8.eee\L)	.
.	8G\J 8E\ 8BB\	.	.
.	.	16ddd\Jk|	.
.	.	(8qddd/	.
8E#X/ 8D/ 8BB/	8GG\	16ccc#^<\LL)	.
.	.	16bb'\JJ	.
*v	*v	*	*
!!LO:LB:g=original
=80	=80	=80
*tremolo	*	*
8F#/L 8D/ 8AA/	16aa'\LL	.
.	(32fff#\L	.
.	32ddd\JJJ)	.
8F#/ 8D/ 8AA/	8aa'\L	.
8F#/J 8D/ 8AA/	8ff#'\J	.
=81	=81	=81
8G/L 8E/ 8AA/	(16gg#X\LL	.
.	16aa\JJ)	.
8G/ 8E/ 8AA/	(16aa#X\LL	.
.	16bb\JJ)	.
8G/J 8E/ 8AA/	(16bb#X\LL	.
.	16ccc#\JJ)	.
*Xtremolo	*	*
=82||	=82||	=82||
!	!LO:TX:b:i:t=piu mosso.	!
16.F#/LL 16.D/	8ddd\	.
32F#/JJk 32FF#/	.	.
8A/L 8AA/	8r	.
8AA/J 8AAA/	8ccc#\ 8aa\ 8gg\ 8ee\	.
=83	=83	=83
16.D/LL 16.DD/	8ddd\ 8aa\ 8ff#\ 8dd\	.
32B/JJk 32BB/	.	.
8A/L 8AA/	8r	.
8AA/J 8AAA/	8ccc#\ 8aa\ 8gg\ 8ee\	.
=84	=84	=84
8D/ 8DD/	8ddd\ 8aa\ 8ff#\ 8dd\	.
8r	8r	.
8r	8r	.
=85	=85	=85
8d\ 8A\ 8F#\ 8D\	8fff#\ 8ddd\ 8aa\	.
8.r	8.r	.
16D/ 16DD/	16d/	.
=86	=86	=86
4.D/ 4.DD/	4.d/	.
=87	=87	=87
8D/ 8AA/ 8FF#/ 8DD/	8ddd\ 8aa\ 8ff#\ 8dd\	.
8r	8r	.
8r	8r	.
==	==	==
*-	*-	*-
!!!system-decoration: [(s1,s2)]
!!!RDF**kern: | = vertical stroke
!!!RDF**kern: > = above
!!!RDF**kern: < = below
!!!EED: Andrzej Borzym
!!!EEV: 2021-06-23
!!!ENC: Marcin Jachim
!!!END: 2021-06-14
